__todo__/nsis.svg

<svg viewBox="0 0 24 24" xmlns="http://www.w3.org/2000/svg"><path d="m13.736 24h10.264l-5.132-4.919zm-6.021-5.064 5.133 4.918 5.132-4.919zm-6.539-5.272v9.838l5.132-4.919-1.503-1.441zm21.648-1.626-5.132 4.919 5.132 4.919zm-4.844 6.193-5.132-4.92-5.132 4.92zm-16.284-5.066 5.132 4.92 5.132-4.92zm20.608-1.625h-10.265l5.133 4.919zm-15.476-3.999-5.132 4.92h10.264zm-5.652 4.421 5.132-4.919-5.132-4.919zm21.128-1.127-5.132-4.92-5.133 4.92zm-6.02-5.065h-10.264l5.132 4.919zm6.54-5.272-5.132 4.919 5.132 4.92v-9.839zm-6.539 4.567-5.133-4.919-5.132 4.919zm-6.021-5.065h-10.264l5.132 4.919z"/></svg>

<svg role="img" viewBox="0 0 24 24" xmlns="http://www.w3.org/2000/svg"><title>NSIS</title><path d="M13.736 24H24l-5.132-4.919L13.736 24Zm-6.021-5.064 5.133 4.918 5.132-4.919-10.265.001Zm-6.539-5.272v9.838l5.132-4.919-1.503-1.441-3.629-3.478Zm21.648-1.626-5.132 4.919 5.132 4.919v-9.838Zm-4.844 6.193-5.132-4.92-5.132 4.92H17.98ZM1.696 13.165l5.132 4.92 5.132-4.92H1.696Zm20.608-1.625H12.039l5.133 4.919 5.132-4.919ZM6.828 7.541l-5.132 4.92H11.96l-5.132-4.92Zm-5.652 4.421 5.132-4.919-5.132-4.919v9.838Zm21.128-1.127-5.132-4.92-5.133 4.92h10.265Zm-6.02-5.065H6.02l5.132 4.919 5.132-4.919Zm6.54-5.272-5.132 4.919 5.132 4.92V.498Zm-6.539 4.567L11.152.146 6.02 5.065h10.265ZM10.264 0H0l5.132 4.919L10.264 0Z"/></svg>
